packages/foundations/assets/icons/functional/images/communication/chat_24_filled.svg

<svg xmlns="http://www.w3.org/2000/svg" width="20" height="20" fill="none"><path fill="#1A1C1F" fill-rule="evenodd" d="M4.153 2.069a2.48 2.48 0 0 0-2.049 2.114c-.023.171-.049 2.55-.073 6.589-.034 5.716-.033 6.339.015 6.501.129.446.551.722 1.048.686.123-.008.276-.042.34-.074s.75-.69 1.524-1.463l1.409-1.405L11.142 15l4.775-.017.291-.104c.37-.132.608-.275.895-.539.364-.336.622-.776.751-1.281.063-.248.1-2.287.118-6.426.013-2.873.025-2.707-.247-3.266-.112-.23-.196-.341-.441-.588-.266-.267-.346-.325-.652-.473-.603-.292-.131-.273-6.611-.269-3.137.002-5.778.017-5.868.032M15 6.033v1H5v-2h10zm0 4v1H5v-2h10z"/></svg>

<svg width="20" height="20" viewBox="0 0 20 20" fill="none" xmlns="http://www.w3.org/2000/svg"><path d="M4.153 2.069 C 3.078 2.248,2.246 3.108,2.104 4.183 C 2.081 4.354,2.055 6.733,2.031 10.772 C 1.997 16.488,1.998 17.111,2.046 17.273 C 2.175 17.719,2.597 17.995,3.094 17.959 C 3.217 17.951,3.370 17.917,3.434 17.885 C 3.498 17.853,4.184 17.195,4.958 16.422 L 6.367 15.017 11.142 15.000 L 15.917 14.983 16.208 14.879 C 16.578 14.747,16.816 14.604,17.103 14.340 C 17.467 14.004,17.725 13.564,17.854 13.059 C 17.917 12.811,17.954 10.772,17.972 6.633 C 17.985 3.760,17.997 3.926,17.725 3.367 C 17.613 3.137,17.529 3.026,17.284 2.779 C 17.018 2.512,16.938 2.454,16.632 2.306 C 16.029 2.014,16.501 2.033,10.021 2.037 C 6.884 2.039,4.243 2.054,4.153 2.069 M15.000 6.033 L 15.000 7.033 10.000 7.033 L 5.000 7.033 5.000 6.033 L 5.000 5.033 10.000 5.033 L 15.000 5.033 15.000 6.033 M15.000 10.033 L 15.000 11.033 10.000 11.033 L 5.000 11.033 5.000 10.033 L 5.000 9.033 10.000 9.033 L 15.000 9.033 15.000 10.033 " fill="#1A1C1F" stroke="none" fill-rule="evenodd"></path></svg>
